!!!SOCIAL_FUNCTION:	songs of the hiding-stick game
!!!PDT:	1918

Specific Region: Dakotas, Minnesota, Montana, Nebraska
!!!REG: Dakotas and Montana
!!!LING_GROUP: Siouan
!!!LANG: Tone
!!!OTL@ENG: Song of Victory
!!!ONM: No. 214
**kern
*Imale
*clefF4
*M2/4
*MM160
2e
=2
4.e
8c
=3
8e
8c
4c
=4
4.c
8A
=5
8c
8A
4A
=6
4A
4A
=7
4E
4E
=8
4A
4A
=9
4E
4E
=10
4A
4E
=11
4E
4D
=12
4E
4E
=13
4E
8E
8E
=14
8E
8D
8E
8D
=15
[2E
=16
2E]
=17
4c
4c
=18
4c
4c
=19
4e
4c
=20
(4.c
8A)
=21
4c
4A
=22
4A
4A
=23
4E
4E
=24
4A
4A
=25
4E
4E
=26
4E
4E
=27
4A
4E
=28
4E
4D
=29
4E
4E
=30
4E
8E
8E
=31
4E
8E
8D
=32
2E
==
*-
!!!CNT: Native American -- Sioux
!!!MRD: 1911/07//-1914///
!!!OCL: Frances Densmore
!!!YOR1: Teton Sioux Music, Bulletin 61,
!!!YOR2: Bureau of American Ethnology, Smithsonian Institution
!!!PPR: Government Printing Office
!!!PPP: Washington, D.C.
!!!PDT: 1918///
!!!ENC: Craig Stuart Sapp
!!!END: 2002/03/25/
!!!EEV: 2002/03/31/
!!!AGN: Game Song/Song of the Hiding-stick Game
!!!MPN@@SIO: Waha'changka-ya'pi
!!!MPN@ENG: Used-as-a-Shield
!!!TXO: Teton Sioux
!!!MLC: Standing Rock Reservation, South Dakota, United States of America
!!!ARL: 45.9/-100.7#
!!!catalog: Catalogue No. 618
!!!PPG: 491
!!!EFL: 219/245
!!!VTS: 2370152315
